X: 41
T: The Kid On The Mountain
B: begged borrowed and stolen
B: nick
B: steve tunes
M:9/8
L:1/8
R: slip jig
Q: 3/8=100
K:Eminor
V:1 
|:"Em"EDE FEF G2F|"Em"EFE c2A "D"BGE|"Em"EDE FEFG2A|"D"BAG FAG FED:|
|:"G"BGB "D"AFA "G"G2 D|"G"GAB dge dBA|"G"BGB "D"AFA "G"G2 A|"G"BAG "D"FAG FED:|
|:"Em"gfg eBe e2f|"Em"gfg efg "D"afd|"Em"gfg eBe efg|"D"bag fag fed:|
|:"Em"eBB e2f g2f|"Em"eBB efg "D"afd|"Em"eBB e2f g2a|"D"bag fag fed:|
|:"G"eBe "D"dBA "G"G2A|B2d dge dBd|"G"eBe "D"dBA "G"G2A|"G"BAG "D"FAG FED:|
% abcbook-tune_id 62828a3a6955451e5bc1fd66


% abcbook-boost 0
% abcbook-tablature 
% abcbook-transpose 
% abcbook-lastupdated 1665491368523
% abcbook-soundfonts 
% abcbook-repeats 3
% abc-sessionorg_id 52
% abc-sessionorg_setting 0
% abc-sessionorg_setting_id 24780
% abc-boost 0

